SVG_Azure_All/Virtual Machine SQL.svg

<?xml version="1.0" encoding="UTF-8" standalone="no"?>
<!-- Generated by Microsoft Visio, SVG Export Virtual Machine SQL.svg Page-1 -->

<svg
   xmlns:dc="http://purl.org/dc/elements/1.1/"
   xmlns:cc="http://creativecommons.org/ns#"
   xmlns:rdf="http://www.w3.org/1999/02/22-rdf-syntax-ns#"
   xmlns:svg="http://www.w3.org/2000/svg"
   xmlns="http://www.w3.org/2000/svg"
   xmlns:sodipodi="http://sodipodi.sourceforge.net/DTD/sodipodi-0.dtd"
   xmlns:inkscape="http://www.inkscape.org/namespaces/inkscape"
   width="0.78735906in"
   height="0.74794668in"
   viewBox="0 0 56.68976 53.852302"
   xml:space="preserve"
   class="st4"
   version="1.1"
   id="svg47"
   sodipodi:docname="Virtual Machine SQL.svg"
   style="font-size:12px;overflow:visible;color-interpolation-filters:sRGB;fill:none;fill-rule:evenodd;stroke-linecap:square;stroke-miterlimit:3"
   inkscape:version="0.92.5 (2060ec1f9f, 2020-04-08)"><metadata
   id="metadata51"><rdf:RDF><cc:Work
       rdf:about=""><dc:format>image/svg+xml</dc:format><dc:type
         rdf:resource="http://purl.org/dc/dcmitype/StillImage" /></cc:Work></rdf:RDF></metadata><sodipodi:namedview
   pagecolor="#ffffff"
   bordercolor="#666666"
   borderopacity="1"
   objecttolerance="10"
   gridtolerance="10"
   guidetolerance="10"
   inkscape:pageopacity="0"
   inkscape:pageshadow="2"
   inkscape:window-width="640"
   inkscape:window-height="480"
   id="namedview49"
   showgrid="false"
   inkscape:zoom="1.4523234"
   inkscape:cx="37.795237"
   inkscape:cy="35.889642"
   inkscape:window-x="0"
   inkscape:window-y="0"
   inkscape:window-maximized="0"
   inkscape:current-layer="svg47" />
	<style
   type="text/css"
   id="style2">
	<![CDATA[
		.st1 {fill:url(#grad0-6);stroke:none;stroke-linecap:butt;stroke-width:34}
		.st2 {fill:url(#grad0-10);stroke:none;stroke-linecap:butt;stroke-width:34}
		.st3 {fill:url(#grad3-14);stroke:none;stroke-linecap:butt;stroke-width:34}
		.st4 {fill:none;fill-rule:evenodd;font-size:12px;overflow:visible;stroke-linecap:square;stroke-miterlimit:3}
	]]>
	</style>

	<defs
   id="Patterns_And_Gradients">
		<linearGradient
   id="grad0-6"
   x1="0"
   y1="100.71197"
   x2="46.827016"
   y2="100.71197"
   gradientTransform="scale(1.2106259,0.82601897)"
   gradientUnits="userSpaceOnUse">
			<stop
   offset="0"
   stop-color="#0078d4"
   stop-opacity="1"
   id="stop4" />
			<stop
   offset="0.82"
   stop-color="#5ea0ef"
   stop-opacity="1"
   id="stop6" />
		</linearGradient>
		<linearGradient
   id="grad0-10"
   x1="-0.00017388586"
   y1="146.1385"
   x2="20.714418"
   y2="146.1385"
   gradientTransform="scale(1.3691072,0.73040301)"
   gradientUnits="userSpaceOnUse">
			<stop
   offset="0.15"
   stop-color="#cccccc"
   stop-opacity="1"
   id="stop9" />
			<stop
   offset="1"
   stop-color="#707070"
   stop-opacity="1"
   id="stop11" />
		</linearGradient>
		<radialGradient
   id="grad3-14"
   cx="12.779374"
   cy="155.25307"
   r="18.657886"
   gradientTransform="scale(1.3787843,0.72527661)"
   fx="12.779374"
   fy="155.25307"
   gradientUnits="userSpaceOnUse">
			<stop
   offset="0"
   stop-color="#f2f2f2"
   stop-opacity="1"
   id="stop14" />
			<stop
   offset="0.58"
   stop-color="#eeeeee"
   stop-opacity="1"
   id="stop16" />
			<stop
   offset="1"
   stop-color="#e6e6e6"
   stop-opacity="1"
   id="stop18" />
		</radialGradient>
	</defs>
	<g
   id="g45"
   transform="translate(-34.000261,-34.001998)">
		<title
   id="title22">Page-1</title>
		<g
   id="group351-1"
   transform="translate(34,-34.0157)">
			<title
   id="title24">Virtual Machine SQL</title>
			<g
   id="group352-2">
				<title
   id="title26">Sql virtual machine</title>
				<g
   id="shape353-3"
   transform="translate(0,-15.1723)">
					<title
   id="title28">rect4</title>
					<path
   d="m 0,119.95 a 1.87751,1.92233 -180 0 0 1.88,1.92 h 52.94 a 1.87751,1.92233 -180 0 0 1.87,-1.92 V 85.11 A 1.87751,1.92233 -180 0 0 54.82,83.19 H 1.88 A 1.87751,1.92233 -180 0 0 0,85.11 Z"
   class="st1"
   id="path30"
   inkscape:connector-curvature="0"
   style="fill:url(#grad0-6);stroke:none;stroke-width:34;stroke-linecap:butt" />
				</g>
				<g
   id="shape354-7"
   transform="translate(14.1816)">
					<title
   id="title33">path6</title>
					<path
   d="m 25.55,118.44 c -5.6,-0.89 -5.84,-5.04 -5.8,-11.7 H 8.62 c 0,6.66 -0.2,10.81 -5.8,11.7 A 3.35263,3.43265 -180 0 0 0,121.87 h 28.36 a 3.35263,3.43265 -180 0 0 -2.81,-3.43 z"
   class="st2"
   id="path35"
   inkscape:connector-curvature="0"
   style="fill:url(#grad0-10);stroke:none;stroke-width:34;stroke-linecap:butt" />
				</g>
				<g
   id="shape355-11"
   transform="translate(11.9018,-24.4748)">
					<title
   id="title38">path8</title>
					<path
   d="m 30.11,115.52 v -11.94 h -3.36 v 14.59 h 8.49 v -2.65 z M 5.5,109.62 a 6.70525,6.8653 0 0 1 -1.75,-1.06 1.50868,1.54469 0 0 1 -0.43,-1.17 1.20695,1.23575 0 0 1 0.54,-1.07 2.31331,2.36853 0 0 1 1.44,-0.37 5.56536,5.6982 0 0 1 3.35,0.99 v -3.02 a 9.28678,9.50844 -180 0 0 -3.35,-0.58 5.80004,5.93848 -180 0 0 -3.79,1.2 3.75494,3.84457 -180 0 0 -1.41,3.16 4.62662,4.73706 -180 0 0 2.95,4.25 8.34804,8.5473 0 0 1 2.11,1.27 1.37458,1.40739 0 0 1 0.54,1.14 1.34105,1.37306 0 0 1 -0.54,1.09 A 2.548,2.60881 0 0 1 3.75,115.9 5.66594,5.80118 0 0 1 0,114.39 v 3.43 a 7.61046,7.79211 -180 0 0 3.69,0.83 6.70525,6.8653 -180 0 0 4.05,-1.34 3.75494,3.84457 -180 0 0 1.48,-3.23 3.35263,3.43265 -180 0 0 -0.87,-2.47 8.51567,8.71893 -180 0 0 -2.85,-1.99 z m 17.9,5.63 a 8.0463,8.23836 -180 0 0 1.14,-4.46 8.18041,8.37566 -180 0 0 -0.87,-3.88 6.20236,6.3504 -180 0 0 -2.41,-2.65 6.87288,7.03693 -180 0 0 -3.36,-0.92 7.47636,7.65481 -180 0 0 -3.72,0.96 6.33646,6.48771 -180 0 0 -2.55,2.74 8.28099,8.47864 -180 0 0 -1.04,4.06 8.18041,8.37566 -180 0 0 0.81,3.7 6.43704,6.59069 -180 0 0 2.38,2.61 6.90641,7.07126 -180 0 0 3.35,1.03 l 2.95,3.43 h 4.16 l -4.06,-3.98 a 5.96768,6.11012 -180 0 0 3.22,-2.64 z m -3.35,-0.89 a 3.15147,3.22669 0 0 1 -2.62,1.23 3.08442,3.15804 0 0 1 -2.61,-1.27 5.19657,5.32061 0 0 1 -1.01,-3.43 5.26362,5.38926 0 0 1 1.01,-3.43 3.35263,3.43265 0 0 1 2.68,-1.27 3.01736,3.08938 0 0 1 2.58,1.27 5.53183,5.66387 0 0 1 0.94,3.43 5.02894,5.14897 0 0 1 -0.84,3.47 z"
   class="st3"
   id="path40"
   inkscape:connector-curvature="0"
   style="fill:url(#grad3-14);stroke:none;stroke-width:34;stroke-linecap:butt" />
				</g>
			</g>
		</g>
	</g>
</svg>

<?xml version="1.0" encoding="UTF-8" standalone="no"?>
<!DOCTYPE svg PUBLIC "-//W3C//DTD SVG 1.1//EN" "http://www.w3.org/Graphics/SVG/1.1/DTD/svg11.dtd">
<!-- Generated by Microsoft Visio, SVG Export Virtual Machine SQL.svg Page-1 -->
<svg xmlns="http://www.w3.org/2000/svg" xmlns:xlink="http://www.w3.org/1999/xlink" xmlns:ev="http://www.w3.org/2001/xml-events"
		width="1.73185in" height="1.69269in" viewBox="0 0 124.693 121.874" xml:space="preserve" color-interpolation-filters="sRGB"
		class="st4">
	<style type="text/css">
	<![CDATA[
		.st1 {fill:url(#grad0-6);stroke:none;stroke-linecap:butt;stroke-width:34}
		.st2 {fill:url(#grad0-10);stroke:none;stroke-linecap:butt;stroke-width:34}
		.st3 {fill:url(#grad3-14);stroke:none;stroke-linecap:butt;stroke-width:34}
		.st4 {fill:none;fill-rule:evenodd;font-size:12px;overflow:visible;stroke-linecap:square;stroke-miterlimit:3}
	]]>
	</style>

	<defs id="Patterns_And_Gradients">
		<linearGradient id="grad0-6" x1="0" y1="0" x2="1" y2="0" gradientTransform="rotate(-90 0.5 0.5)">
			<stop offset="0" stop-color="#0078d4" stop-opacity="1"/>
			<stop offset="0.82" stop-color="#5ea0ef" stop-opacity="1"/>
		</linearGradient>
		<linearGradient id="grad0-10" x1="0" y1="0" x2="1" y2="0" gradientTransform="rotate(-90 0.5 0.5)">
			<stop offset="0.15" stop-color="#cccccc" stop-opacity="1"/>
			<stop offset="1" stop-color="#707070" stop-opacity="1"/>
		</linearGradient>
		<radialGradient id="grad3-14" cx="0.5" cy="0.5" r="0.73">
			<stop offset="0" stop-color="#f2f2f2" stop-opacity="1"/>
			<stop offset="0.58" stop-color="#eeeeee" stop-opacity="1"/>
			<stop offset="1" stop-color="#e6e6e6" stop-opacity="1"/>
		</radialGradient>
	</defs>
	<g>
		<title>Page-1</title>
		<g id="group351-1" transform="translate(34,-34.0157)">
			<title>Virtual Machine SQL</title>
			<g id="group352-2">
				<title>Sql virtual machine</title>
				<g id="shape353-3" transform="translate(0,-15.1723)">
					<title>rect4</title>
					<path d="M0 119.95 A1.87751 1.92233 -180 0 0 1.88 121.87 L54.82 121.87 A1.87751 1.92233 -180 0 0 56.69 119.95
								 L56.69 85.11 A1.87751 1.92233 -180 0 0 54.82 83.19 L1.88 83.19 A1.87751 1.92233 -180 0 0 0 85.11
								 L0 119.95 Z" class="st1"/>
				</g>
				<g id="shape354-7" transform="translate(14.1816,0)">
					<title>path6</title>
					<path d="M25.55 118.44 C19.95 117.55 19.71 113.4 19.75 106.74 L8.62 106.74 C8.62 113.4 8.42 117.55 2.82 118.44
								 A3.35263 3.43265 -180 0 0 0 121.87 L28.36 121.87 A3.35263 3.43265 -180 0 0 25.55 118.44 Z"
							class="st2"/>
				</g>
				<g id="shape355-11" transform="translate(11.9018,-24.4748)">
					<title>path8</title>
					<path d="M30.11 115.52 L30.11 103.58 L26.75 103.58 L26.75 118.17 L35.24 118.17 L35.24 115.52 L30.11 115.52 ZM5.5
								 109.62 A6.70525 6.8653 0 0 1 3.75 108.56 A1.50868 1.54469 0 0 1 3.32 107.39 A1.20695 1.23575 0 0
								 1 3.86 106.32 A2.31331 2.36853 0 0 1 5.3 105.95 A5.56536 5.6982 0 0 1 8.65 106.94 L8.65 103.92 A9.28678
								 9.50844 -180 0 0 5.3 103.34 A5.80004 5.93848 -180 0 0 1.51 104.54 A3.75494 3.84457 -180 0 0 0.1
								 107.7 A4.62662 4.73706 -180 0 0 3.05 111.95 A8.34804 8.5473 0 0 1 5.16 113.22 A1.37458 1.40739 0
								 0 1 5.7 114.36 A1.34105 1.37306 0 0 1 5.16 115.45 A2.548 2.60881 0 0 1 3.75 115.9 A5.66594 5.80118
								 0 0 1 -0 114.39 L0 117.82 A7.61046 7.79211 -180 0 0 3.69 118.65 A6.70525 6.8653 -180 0 0 7.74 117.31
								 A3.75494 3.84457 -180 0 0 9.22 114.08 A3.35263 3.43265 -180 0 0 8.35 111.61 A8.51567 8.71893 -180
								 0 0 5.5 109.62 ZM23.4 115.25 A8.0463 8.23836 -180 0 0 24.54 110.79 A8.18041 8.37566 -180 0 0 23.67
								 106.91 A6.20236 6.3504 -180 0 0 21.26 104.26 A6.87288 7.03693 -180 0 0 17.9 103.34 A7.47636 7.65481
								 -180 0 0 14.18 104.3 A6.33646 6.48771 -180 0 0 11.63 107.04 A8.28099 8.47864 -180 0 0 10.59 111.1
								 A8.18041 8.37566 -180 0 0 11.4 114.8 A6.43704 6.59069 -180 0 0 13.78 117.41 A6.90641 7.07126 -180
								 0 0 17.13 118.44 L20.08 121.87 L24.24 121.87 L20.18 117.89 A5.96768 6.11012 -180 0 0 23.4 115.25
								 ZM20.05 114.36 A3.15147 3.22669 0 0 1 17.43 115.59 A3.08442 3.15804 0 0 1 14.82 114.32 A5.19657
								 5.32061 0 0 1 13.81 110.89 A5.26362 5.38926 0 0 1 14.82 107.46 A3.35263 3.43265 0 0 1 17.5 106.19
								 A3.01736 3.08938 0 0 1 20.08 107.46 A5.53183 5.66387 0 0 1 21.02 110.89 A5.02894 5.14897 0 0 1 20.18
								 114.36 L20.05 114.36 Z" class="st3"/>
				</g>
			</g>
		</g>
	</g>
</svg>
